X:866
T:Gingerhog's #2
R:Slip Jig
S:Nottingham Music Database
S:Phil Cunningham arr Hamish
Z:Transcription:?, minor arr., chords:Mike Long
M:9/8
L:1/8
K:D
"D"Add fdd "A"e2f|"D"Add "A"efd "G"fdB|"D"Add fdd "A"e2f|\
"G"GBd "D"Afd "A"e3:|
|:"D"a2f fef "A"def|"D"aff "A"efA "G"B3|"D"a2f fef dBA|\
"G"GBd "D"Afd "A"e3:|
